X:1
T:Ahi che faro
T:Ahi che faro
T:Rugiero Giovanelli
T:Source: Melodia Olympica---Anversa---P.Phalesio & G.Bellero---1591. Editor: André Vierendeels (18/12/13).
C:Rugiero Giovanelli
%%score [ 1 2 [ 3 4 ] ]
L:1/8
Q:1/4=120
M:4/4
K:C
V:1 treble nm="Canto" snm="C"
V:2 treble nm="Alto" snm="A"
V:3 treble-8 nm="Tenor 1" snm="T 1"
V:4 treble-8 nm="Tenor 2" snm="T 2"
V:1
 z4 e4- | e2 dc B2 A2 | B4 A4 | z4 A2 AA | A2 _B2 A4 | B2 d2 d2 c2 | B4 B4 | z4 e4- | e2 B2 d4- | %9
w: Ahi|_ che fa- ro ben|mi- o,|sen- za la|dol- ce'a- i-|ta, de tuoi be-|gl'oc- chi|che|_ mi da-|
 d2 c2 B4 | A8 | e6 dc | B2 A2 ^G4 | A8 | z4 e2 ee | e2 f2 e4 | d4 f4- | f2 ed c3 B | A2 G2 A4 | %19
w: * van vi-|ta,|ahi che fa-|ro ben mi-|o,|sen- za la|dol- ce'a- i-|ta, ahi|_ che fa- ro _|_ ben mi-|
 ^F8 | z4 d2 dd | d2 e2 d4 | e2 c2 c2 A2 | A4 A2 e2- | e2 A2 e4- | e4 d4 | e8 | ^c8 | e2 ef g2 e2 | %29
w: o,|sen- za la|dol- ce'a- i-|ta, de tuoi be-|gl'oc- chi che|_ mi da-|* van|vi-|ta,|co- me po- tra mai|
 d2 g2 ^f2 g2 | d6 cB | A8 | B2 B3 B d2 | ^c2 c2 d2 d2 | A2 A2 B4 | A2 c2 A2 c2 | B4 c2 c2- | %37
w: piu qu- est'al- ma|tri- * *||sta, vi- ver sen-|za ve- der l'u-|sa- ta vi-|sta, l'u- sa- ta|vi- sta, vi-|
 cc e2 d2 d2 | G2 g2 e2 g2 | ^f4 g2 e2 | e2 B2 d4 | d4 z2 d2 | B2 c2 B4- | B2 A2 ^G2 A2- | %44
w: * ver sen- za ve-|der l'u- sa- ta|vi- sta, l'u-|sa- ta vi-|sta, l'u-|sa- ta vi-||
 A2 ^G2 A4 | z8 | e2 ef g2 e2 | d2 c2 B2 e2 | d2 c4 B2 | c2 G3 G G2 | A2 A2 B4 | z2 d2 B2 c2 | %52
w: * * sta,||co- me po- tra mai|piu que- st'al- ma|tri- * *|sta, vi- ver sen-|za ve- der|l'u- sa- ta|
 B6 A2 | ^G2 A4 G2 | A8 |] %55
w: vi- *||sta.|
V:2
 z4 c4- | c2 BA ^G2 A2 | ^G4 A4 | F2 FF F2 E2 | ^F2 G4 F2 | G2 B2 B2 A2 | ^G4 G4 | z2 c4 G2 | %8
w: Ahi|_ che fa- ro ben|mi- o,|sen- za la dol- ce'a-|i- * *|ta, de tuoi be-|gl'oc- chi|che mi|
 B6 A2 | ^G2 A4 G2 | A4 c4- | c2 BA G4- | G2 D2 E4 | E4 z4 | c2 cc c2 B2 | A8 | A8 | F6 ED | %18
w: da- van|vi- * *|ta, ahi|_ che fa- ro|_ ben mi-|o,|sen- za la dol- ce'a-|i-|ta,|ahi che fa-|
 ^C2 D2 E4 | A8 | B2 BB B2 A2 | G8 | G2 G2 G2 F2 | E4 E4 | c6 B2 | B6 A2 | ^G2 A4 G2 | A4 A2 AB | %28
w: ro ben mi-|o,|sen- za la dol- ce'a-|i-|ta, de tuoi be-|gl'oc- chi|che mi|da- van|vi- * *|ta, co- me po-|
"^-natural" c2 A2 G4 | B2 Bc d2 B2 | A2 G2 ^F2 G2 | D4 D4 | z2 G3 G G2 | A2 A2 A2 A2 | F2 A2 ^G4 | %35
w: tra mai piu,|co- me po- tra mai|piu que- st'al- ma|tri- sta,|vi- ver sen-|za ve- der l'u-|sa- ta vi-|
 A2 F3 F E2 | G2 G2 G2 G2 | A2 G2 G4 | E2 G3 G G2 | A2 A2 B2 c2 | c2 G2 A4 | B2 G2 E2 F2 | E6 D2 | %43
w: sta, vi- ver sen-|za ve- der l'u-|sa- ta vi-|sta, vi- ver sen-|za ve- der l'u-|sa- ti vi-|sta, l'u- sa- ta|vi- *|
 C2 D2 E4 | E8 | A2 AB c2 A2 | G2 c2 B2 c2 | G8- | G8 | G2 E3 E G2 | ^F2 F2 G2 G2 | %51
w: |sta,|co- me po- tra mai|piu que- st'al- ma|tri-||sta, vi- ver sen-|za ve- der l'u-|
"^-natural" E2 F2 E4- | E2 D2 C2 D2 | E8 | E8 |] %55
w: sa- ta vi-|||sta.|
V:3
 a6 gf | e6 f2 | e4 A4 | d2 dd d2 ^c2 | d8 | G2 g2 g2 a2 | e4 e4 | a6 e2 | g6 f2 | e8 | A8 | %11
w: Ahi che fa-|ro ben|mi- o,|sen- za la dol- ce'a-|i-|ta, de tuoi be-|gl'oc- chi|che mi|da- van|vi-|ta,|
 c6 BA | G2 A2 B4 | ^c4 e2 ee | e2 f2 e3 d | ^c2 d4 c2 | d8 | a6 gf | e2 d2 ^c4 | d4 d2 dd | %20
w: ahi che fa-|ro be mi-|o, sen- za la|dol- ce'a- i- *||ta,|ahi che fa-|ro ben mi-|o, sen- za la|
 d2 e2 d3 c | B2 c4 B2 | c2 e2 e2 d2 | ^c4 c4 | z4 z2 e2- | e2 B2 d4- | d2 c2 B4 | A8 | z4 e2 ef | %29
w: dol- ce'a- i- *||ta, de tuoi be-|gl'oc- chi|che|_ mi da-|* van vi-|ta,|co- me po-|
 g2 e2 d2 g2 | ^f2 g2 d2 e2 | ^f2 g4 f2 | g2 d3 d d2 | e2 e2 d2 d2- | dd f2 e2 e2 | A2 A2 c2 c2 | %36
w: tra mai piu qu-|est'al- ma tri- *||sta, vi- ver sen-|za ve- der, vi-|* ver sen- za ve-|der l'u- sa- ta|
 d4 e2 e2 | e2 c2 d4 | c2 c3 c e2 | d2 d2 G2 g2 | e2 g2 ^f4 | g2 g3 g a2 | g6 g2 | G2 d2 B2 c2 | %44
w: vi- sta, l'u-|sa- ta vi-|sta, vi- ver sen-|za ve- der l'u-|sa- ta vi-|sta, vi- ver sen-|za l'u-|sa- ta vi- *|
 B4 A4 | z8 | z4 e2 ef | g2 e2 d2 c2 | B2 e2 d4 | c4 z4 | z4 z2 g2- | gg a2 g4- | g2 g2 G2 d2 | %53
w: * sta,||co- me po-|tra mai piu qu-|est'al- ma tri-|sta,|vi-|* ver sen- za|_ ve- der l'u-|
 B2 c2 B4 | A8 |] %55
w: sa- ta vi-|sta.|
V:4
 z8 | z8 | z8 | z8 | z8 | z8 | z8 | z8 | z8 | z8 | z4 A4- | A2 GF E4- | E2 F2 E4 | A,8 | %14
w: ||||||||||Ahi|_ che fa- ro|_ ben mi-|o,|
 A2 AA A2 ^G2 | A8 | D4 d4- | d2 cB A4- | A2 _B2 A4 | D8 | G2 GG G2 ^F2 | G8 | C2 c2 c2 d2 | %23
w: sen- za la dol- ce'a-|i-|ta, ahi|_ che fa- ro|_ ben mi-|o,|sen- za dol- ce'a- i-||ta, de tuoi be-|
 A4 A4 | A6 E2 | G6 F2 | E8 | A,8 | z8 | z8 | z8 | z8 | z2 G3 G _B2 | A2 A2 D4 | z8 | z2 F3 F A2 | %36
w: gl'oc- chi|che mi|da- van|vi-|ta,|||||vi- ver sen-|za ve- der,||vi- ver sen-|
 G2 G2 C2 c2 | A2 c2 B4 | c4 z4 | z4 z2 c2- | cc e2 d2 d2 | G4 z4 | z4 z2 G2 | E2 F2 E4- | E4 A,4 | %45
w: za ve- der l'u-|sa- ta vi-|sta,|vi-|ver- ver sen- za ve-|der|l'u-|sa- ta vi-|* sta,|
 z4 A2 AB | c2 A2 G2 c2 | B2 c2 G4- | G4 G4 | z2 c3 c e2 | d2 d2 G4 | z8 | z2 G2 E2 F2 | E8 | %54
w: co- me po-|tra mai piu que-|st'al- ma tri-|* sta,|vi- ver sen-|za ve- der||l'u- sa- ta|vi-|
 A,8 |] %55
w: sta.|

